X: 34
T: No_40_Song_of_Comanche_Dance.krn
N: Derived from No_40_Song_of_Comanche_Dance.krn
%%abc-version 2.0
%%abcx-abcm2ps-target-version 5.9.1 (29 Sep 2008)
%%abc-creator hum2abc beta
%%abcx-conversion-date 2019/03/15 08:25:35
%%humdrum-veritas 3133990867
%%humdrum-veritas-data 508152420
%%linebreak <none>
%%barnumbers 0
L: 1/8
M: 2/4
K: Db clef=bass
[K:clef=bass][M:2/4]A,A,A,2 [I:setbarnb 2]| 
A,2A,F | 
[M:3/4]A2FDD2 | 
EEE3F | 
A2FDD2 | 
[M:2/4]DD DD | 
D2z E | 
[M:3/4]E2EDD2 | 
EEE3D | 
[M:2/4]E2ED | 
D2DD | 
D2ED | 
A,2A,2 | 
D4 | 
[M:3/4]D2D2z2 :|]  



